!!!ONB: MCCC : IJH0435_01 : Extracted Monophonic Melody
!!!COM: Haydn, Joseph
!!!OPR: String Quartet, Hob.III:43
!!!OMV: 1
!!!SCT: Hob.III:43 ; Op.42
!!!ODT: 1785///
**kern
*thru
*k[b-]
*d:
*clefG
*M2/4
8.dd
16a
16ff
16ee
16ee
16dd
=1
8dd
8aa
8aa
8aa
=2
8.ee
16a
16gg
16ff
16ff
16ee
=3
8ee
8bb-
8bb-
8bb-
=4
12..aa[
96aa]
32gg
32ff
32ee
8dd
8r
=5
12..bb-[
96bb-]
32aa
32gg
32ff
8ee
8r
=6
8ff
16aa
16r
8cc#
16ee
16r
=7
8dd
4.r
=8
2r
=9
8r
8gg
8gg
8gg
=10
2r
=11
8r
8ccc
8ccc
8ccc
=12
12..ccc[
96ccc]
32bb-
32aa
32gg
8ff
8ff
=13
8ee
16dd
16cc
8cc
8cc
=14
12..ccc[
96ccc]
32bb-
32aa
32gg
8ff
8ff
=15
8ee
16dd
16cc
8cc
8cc
=16
12..ccc[
96ccc]
32bb-
32aa
32gg
8ff
8ee-
=17
24dd
24ee
24ff#
24gg
24aa
24bb-
24ccc
24ddd
24ccc
24bb-
24aa
24gg
=18
4ff
8ee
16r
16ccc
=19
8bb-
16r
16bb-
8aa
16r
16aa
=20
8gg
4.r
=21
2r
=22
2r
=23
8.ff
16cc
16aa
16gg
16gg
16ff
=24
2ee
=25
8.ff
16cc
16ccc
16bb-
16bb-
16aa
=26
16aa
16gg
16gg
16bb-
16bb-
16aa
16aa
16ccc
=27
16ccc
16bb-
6..r
48r
16aa
=28
16aa
16gg
16gg
16bb-
16bb-
16aa
16aa
16ccc
=29
16ccc
16bb-
6..r
48r
16aa
=30
16aa
16gg
16gg
16ddd
16ccc
16bb
16aa
16gg
=31
4.ff
8gg
=32
8ff
16r
16cc
8a
16r
16ff
=33
8ee
16r
16b-
8g
16r
16dd
=34
16r
16cc
16r
16b-
16r
16a
16r
16g
=35
8a
16r
16a
8cc
16r
16ff
=36
8ee
16r
16gg
8bb-
16r
16ddd
=37
16r
16ccc
16r
16bb-
16r
16aa
16r
16gg
=38
4gg
8ff
8r
=39
8.aa
16cc
16bb-
16aa
16aa
16gg
=40
4gg
4r
=41
8.gg
16a
16aa
16gg
16gg
16ff
=42
4ff
4r
=43
8.gg
16dd
16bb-
16aa
16aa
16gg
=44
4gg
8r
16bb
16ccc
=45
4ccc
4r
=46
2r
=47
4ff
16ff
16gg
16gg
16aa
=48
8.aa
16ff
16aa
16bb-
16bb-
16ccc
=49
4ccc
4ccc#
=50
4ddd
4ddd#
=51
4.eee
8ddd#
=52
4.eee
8ddd#
=53
8eee
16r
16ddd#
8eee
16r
16ddd#
=54
8eee
4.r
=55
12..eee[
96eee]
32ddd
32ccc
32bb
8aa
8aa
=56
4gg#
4r
=57
12..eee[
96eee]
32ddd
32ccc
32bb
8aa
8aa
=58
4cc#
8r
8bb-
=59
8aa
16r
16bb-
8aa
16r
16gg#
=60
8aa
16r
16gg#
8aa
16r
16ff#
=61
8gg
16r
16ff#
8gg
16r
16ff#
=62
8gg
16r
16ff#
16gg
16ff#
16gg
16ff#
=63
8gg
4.r
=64
2r
=65
8.dd
16a
16ff
16ee
16ee
16dd
=66
8dd
8aa
8aa
8aa
=67
8.ee
16a
16gg
16ff
16ff
16ee
=68
8ee
8bb-
8bb-
8bb-
=69
12..aa[
96aa]
32gg
32ff
32ee
8dd
8dd
=70
8cc#
16b-
16a
8a
8a
=71
12..aa[
96aa]
32gg
32ff
32ee
8dd
8dd
=72
8cc#
16b-
16a
8a
8a
=73
12..aa[
96aa]
32gg
32ff
32ee
8dd
8ddd
=74
16ccc
16bb-
16aa
16gg
16ff
16ee
16ff
16dd
=75
4dd
8cc#
16r
16aa
=76
8gg
16r
16gg
8ff
16r
16ff
=77
8ee
4.r
=78
4dd
4cc
=79
8.b-
16g
16gg
16ff
16ee
16dd
=80
4.cc#
8dd
=81
8.ee
16a
16aa
16gg
16ff
16ee
=82
16ee
16dd
16dd
16ff
16ff
16ee
16ee
16gg
=83
16gg
16ff#
6..r
48r
16gg
=84
16gg
16ff#
16ff#
16aa
16aa
16gg
16gg
16bb-
=85
16bb-
16aa
6..r
48r
16bb-
=86
16bb-
16aa
16aa
16ccc
16ccc
16bb-
16bb-
16aa
=87
16aa
16gg
16r
16aa
16aa
16gg
16gg
16ff#
=88
16ff#
16gg
16gg
16ff
16ff
16ee
16ee
16dd
=89
8.aa
16bb-
16bb-
16aa
16aa
16gg#
=90
16gg#
16aa
16aa
16bb-
16bb-
16aa
16aa
16gg#
=91
16gg#
16aa
16aa
16bb-
16bb-
16aa
16aa
16gg#
=92
4gg#
4gg
=93
4ff
8ee
8dd
=94
6..dd[
48dd]
32cc#
32dd
16ee
16cc#
=95
8dd
16r
16aa
8ff
16r
16ddd
=96
8ccc#
16r
16gg
8ee
16r
16bb-
=97
16r
16aa
16r
16gg
16r
16ff
16r
16ee
=98
8dd
16r
16ff
8aa
16r
16ddd
=99
8ccc#
16r
16ee
8gg
16r
16bb-
=100
16r
16aa
16r
16gg
16r
16ff
16r
16ee
=101
4dd
4cc
=102
4b-
4g
=103
8f#
8r
8f#
16r
16f#
=104
8f#
4.r
==
*-
